X:676
M:C|
L:1/8
K:E_
E/D/C/B,/ C>D E2E:|
c|B>e ef/g/ f<c c>f|d>c Bc/d/ e/f/g/a/ b>e|B>e ef/g/ a<c c>f|
d>c B/c/d/B/ e2 E>c|B>e ef/g/ a<c c>f|d>c Bc/d/ e/f/g/a/ b>c|

